X:517
T:Marchioness of Huntly
R:Strathspey
B:The Athole Collection
M:C
L:1/8
K:C
E|C<cc>E G2 G>E|C<c c>E D2 D>E|C<c c>E G>Ac>d|c<A c>E D2D:|
e/f/|g>c a/g/f/e/ g>c a/g/f/e/|g>c a/g/f/e/ d2 de/f/|g>c a/g/f/e/ c>ge>g|
f/e/f/g/ a/g/f/e/ d2 de/f/|g>e a/g/f/e/ g>e a/g/f/e/|g>c a/g/f/e/ d2 de/f/|
g>ef>d e<c e>d|d/c/B/A/ c>E D2D||

